!!!COM: Bach, Johann Sebastian
!!!OPR: Joh. Seb. Bachs vierstimmige Choralgesänge
!!!XEN: Four-part Chorales
!!!OTL: 38. Das walt' mein Gott, Vater, Sohn
!!!SCT: BWV 291
!!!SCA: Thematisch-systematisches Verzeichnis der musikalischen Werke Johann Sebastian Bach: Bach-Werke-Verzeichnis (Schmieder)
!!!YOR: Bach Gesellschaft Edition xxxix
!!!ENC: Steven Rasmussen
!!!CDT: 1685/3//-1750/7/28/
!!!OCY: Deutschland
!!!YEC: Copyright (c) 1994, 2000 Center for Computer Assisted Research in the Humanities
!!!YEM: Rights to all derivative editions reserved
!!!YEN: United States of America
**kern	**silbe	**kern	**kern	**kern
*I:[SOPRANO]	*I:[SOPRANO]	*I:[ALTO]	*I:[TENORE]	*I:[BASSO]
*clefG2	*	*clefG2	*clefGv2	*clefF4
*k[b-]	*	*k[b-]	*k[b-]	*k[b-]
*F:	*	*F:	*F:	*F:
*M4/4	*	*M4/4	*M4/4	*M4/4
4f	Das	4d	4A	4D
=1	=1	=1	=1	=1
4f	walt'	4c	4A	8AAL
.	.	.	.	8BB-J
4e	mein	4c	16GLL	4C
.	.	.	16AJ	.
.	.	.	8B-J	.
2f	Gott,	2c	2A	2FF
=2	=2	=2	=2	=2
4a	Va-	4f	4c	4.F
4cc	-ter,	4g	4c	.
.	.	.	.	8E
4b-	Sohn	8fL	8dL	8DL
.	.	8gJ	8cJ	8EJ
4a	und	8gL	4c	4F
.	.	8fJ	.	.
=3	=3	=3	=3	=3
4g	heil'-	8fL	4c	4C
.	.	8eJ	.	.
4g	-ger	4d	8GL	4BBn
.	.	.	8FJ	.
4g;	Geist,	4c;	(8FL	4C;
.	.	.	8E;J)	.
4c	der	4c	4F	4AA
=4	=4	=4	=4	=4
8dL	mich	4B-	8FL	4BB-
8eJ	.	.	8GJ	.
4f	er	8cL	4A	8AAL
.	.	8dJ	.	8BB-J
4f	schaf-	4c	8GL	4C
.	.	.	8AJ	.
4e	-fen	4c	4B-	4CC
=5	=5	=5	=5	=5
2f;	hat,	2c;	2A;	2FF;
4r	.	4r	4r	4r
8fL	mir	4c	8AL	4FF
8gJ	.	.	8B-J	.
=6	=6	=6	=6	=6
4a	Leib	4f	4c	4.F
4g	und	4g	4c	.
.	.	.	.	8E
4a	Seel'	4f	4c	8FL
.	.	.	.	8EJ
4b-	ge-	4f	4d	4D
=7	=7	=7	=7	=7
2cc	-ge-	2f	2c	8AAL
.	.	.	.	8GG
.	.	.	.	8AA
.	.	.	.	8BB-J
4g;	-ben,	4e;	4c;	4C;
4g	im	8gL	4d	4BBn
.	.	8fJ	.	.
=8	=8	=8	=8	=8
4g	Mut-	4e	4c	8CL
.	.	.	.	8EJ
4g	-ter-	4d	4Bn	8GL
.	.	.	.	8FJ
4g	-leib	4e	4c	8EL
.	.	.	.	8DJ
4g	das	4e	4c	8CL
.	.	.	.	8BB-J
=9	=9	=9	=9	=9
2a	Le-	8eL	8c#L	8AAL
.	.	8d	8Bn	8BBn
.	.	8e	8A	8C#
.	.	8c#J	8GJ	8AAJ
4a;	-ben,	4d;	4F;	4D;
4f	ge-	8dL	4A	4D
.	.	8cnJ	.	.
=10	=10	=10	=10	=10
4e	-sund	4B-	4.G	8DL
.	.	.	.	8C#J
4d	ohn'	4A	.	8DL
.	.	.	8F	8FFJ
4d	al-	4B-	4E	8GGL
.	.	.	.	8EEJ
4c#	-len	4A	8EL	4AA
.	.	.	8GJ	.
=11	=11	=11	=11	=11
2.d;	Schad'.	2.A;	2.F#;	2.DD;
==|!	==|!	==|!	==|!	==|!
*-	*-	*-	*-	*-
!!!RWG: Key is interpreted using the Humdrum key tool.
!!!END: 1994/05/16
!!!EMD: Converted from MuseData to Humdrum Dec 19, 2000, by Andreas Kornstaedt using muse2kern.
!!!EED: Craig Stuart Sapp
!!!EEV: 2024/03/31
!!!ONB: Some non-unicode characters
